libs/ui/packages/crypto-icons/src/svg/PEAR.svg

<svg xmlns="http://www.w3.org/2000/svg" width="3270" height="3270" viewBox="0 0 3270 3270" fill="none"><path fill="#000" d="M2050.8 459.532c28.65 7.161 64.45 17.904 103.84 32.227 78.78 28.647 171.88 57.293 264.98 53.713 139.66-7.162 275.73-93.102 347.34-397.472-222.01 60.874-476.25-118.167-719.74 272.143 0 0 0 3.58-3.58 7.161-10.75 14.324-17.91 21.485-25.07 28.647 10.74 0 17.91 0 28.65 3.581z"/><path fill="#000" d="M2523.39 2404.01c-42.97 128.91-111 243.5-200.52 347.34-85.94 100.26-193.37 186.2-315.12 247.08-118.16 64.45-247.07 103.84-379.56 118.16h-3.59c-189.78 21.49-383.14-17.9-555.02-107.42-340.182-179.04-490.576-368.83-565.774-601.58 114.587 121.75 261.4 214.85 436.861 264.98 415.373 114.59 845.073-60.87 1059.923-415.37l175.46 50.13c28.65 7.16 53.71-21.49 39.39-46.55l-196.94-465.51c-7.17-21.49-32.23-25.07-53.72-14.32l-408.21 297.2c-21.49 17.91-17.91 53.72 10.74 60.88l175.46 50.13c-168.3 218.43-454.76 322.27-734.07 243.5-279.302-78.78-465.505-311.54-501.313-576.52-14.323-96.68 7.162-193.36 53.712-279.3 64.455-128.91 157.557-243.5 268.562-336.6 25.066-17.9 39.389-32.23 60.874-46.55 157.555-121.75 243.495-222.011 290.045-286.466 17.91-25.066 32.23-57.293 50.13-96.682 57.3-143.233 168.3-264.981 307.95-333.017 143.24-68.036 304.37-82.359 458.35-39.389 150.39 42.97 279.3 143.233 361.66 279.304 82.36 132.491 107.43 293.63 78.78 447.6 0 17.91-7.16 32.23-7.16 46.55-68.04-39.38-143.23-71.61-225.59-96.68-415.38-114.58-845.08 60.88-1059.93 415.38l-175.457-50.13c-28.646-7.17-53.712 21.48-42.969 46.55l196.946 465.5c7.16 21.49 32.23 25.07 50.13 14.33l408.21-297.21c25.07-17.91 17.91-53.71-10.74-60.88l-175.46-50.13c168.3-218.43 458.35-322.27 737.65-243.49 57.29 14.32 111.01 39.39 161.14 68.03 118.17 68.04 196.94 186.21 239.91 315.12v7.16c64.46 207.69 60.88 436.86-14.32 651.71z"/></svg>

<svg width="3270" height="3270" viewBox="0 0 3270 3270" fill="none" xmlns="http://www.w3.org/2000/svg">
<path d="M2050.8 459.532C2079.45 466.693 2115.25 477.436 2154.64 491.759C2233.42 520.406 2326.52 549.052 2419.62 545.472C2559.28 538.31 2695.35 452.37 2766.96 148C2544.95 208.874 2290.71 29.8327 2047.22 420.143C2047.22 420.143 2047.22 423.723 2043.64 427.304C2032.89 441.628 2025.73 448.789 2018.57 455.951C2029.31 455.951 2036.48 455.951 2047.22 459.532H2050.8Z" fill="black"/>
<path d="M2523.39 2404.01C2480.42 2532.92 2412.39 2647.51 2322.87 2751.35C2236.93 2851.61 2129.5 2937.55 2007.75 2998.43C1889.59 3062.88 1760.68 3102.27 1628.19 3116.59H1624.6C1434.82 3138.08 1241.46 3098.69 1069.58 3009.17C729.398 2830.13 579.004 2640.34 503.806 2407.59C618.393 2529.34 765.206 2622.44 940.667 2672.57C1356.04 2787.16 1785.74 2611.7 2000.59 2257.2L2176.05 2307.33C2204.7 2314.49 2229.76 2285.84 2215.44 2260.78L2018.5 1795.27C2011.33 1773.78 1986.27 1770.2 1964.78 1780.95L1556.57 2078.15C1535.08 2096.06 1538.66 2131.87 1567.31 2139.03L1742.77 2189.16C1574.47 2407.59 1288.01 2511.43 1008.7 2432.66C729.398 2353.88 543.195 2121.12 507.387 1856.14C493.064 1759.46 514.549 1662.78 561.099 1576.84C625.554 1447.93 718.656 1333.34 829.661 1240.24C854.727 1222.34 869.05 1208.01 890.535 1193.69C1048.09 1071.94 1134.03 971.679 1180.58 907.224C1198.49 882.158 1212.81 849.931 1230.71 810.542C1288.01 667.309 1399.01 545.561 1538.66 477.525C1681.9 409.489 1843.03 395.166 1997.01 438.136C2147.4 481.106 2276.31 581.369 2358.67 717.44C2441.03 849.931 2466.1 1011.07 2437.45 1165.04C2437.45 1182.95 2430.29 1197.27 2430.29 1211.59C2362.25 1172.21 2287.06 1139.98 2204.7 1114.91C1789.32 1000.33 1359.62 1175.79 1144.77 1530.29L969.313 1480.16C940.667 1472.99 915.601 1501.64 926.344 1526.71L1123.29 1992.21C1130.45 2013.7 1155.52 2017.28 1173.42 2006.54L1581.63 1709.33C1606.7 1691.42 1599.54 1655.62 1570.89 1648.45L1395.43 1598.32C1563.73 1379.89 1853.78 1276.05 2133.08 1354.83C2190.37 1369.15 2244.09 1394.22 2294.22 1422.86C2412.39 1490.9 2491.16 1609.07 2534.13 1737.98C2534.13 1741.56 2534.13 1745.14 2534.13 1745.14C2598.59 1952.83 2595.01 2182 2519.81 2396.85L2523.39 2404.01Z" fill="black"/>
</svg>
